public/piece/spatial/bQ.svg

<?xml version="1.0" encoding="UTF-8" standalone="no"?>
<svg width="700pt" height="700pt" id="queen" viewBox="0 0 933.333 933.333" sodipodi:version="0.32" inkscape:version="1.1.2 (0a00cf5339, 2022-02-04)" version="1.0" inkscape:export-filename="/home/maurizio/out/wq.png" inkscape:export-xdpi="90" inkscape:export-ydpi="90" sodipodi:docname="q.svg" xmlns:inkscape="http://www.inkscape.org/namespaces/inkscape" xmlns:sodipodi="http://sodipodi.sourceforge.net/DTD/sodipodi-0.dtd" xmlns:xlink="http://www.w3.org/1999/xlink" xmlns="http://www.w3.org/2000/svg" xmlns:svg="http://www.w3.org/2000/svg" xmlns:rdf="http://www.w3.org/1999/02/22-rdf-syntax-ns#" xmlns:cc="http://creativecommons.org/ns#" xmlns:dc="http://purl.org/dc/elements/1.1/">
  <style id="style-base">
    .base { 
      fill-opacity:1;
      fill-rule:evenodd;
      stroke-miterlimit:4;
      stroke-dasharray:none;
      stroke-linecap:round;
      stroke-linejoin:round;
      stroke-opacity:1
    }
    .shadow {
      stroke:none;
      filter:url(#filterBlur);
    }
  </style>
  <style id="stroke-medium">.stroke-medium {stroke-width: 20; }</style>
  <style id="stroke-boundary">.stroke-boundary {stroke-width: 35; }</style>
  <style id="stroke-color">.stroke-color {stroke: black; }</style>
  <style id="fill-color">.fill-color {fill: #7f899b; }</style>
  <defs id="defs36222">
    <linearGradient id="fillGradient">
      <stop style="stop-color: rgb(127, 137, 155); stop-opacity: 1;" offset="0" id="stop0"/>
      <stop style="stop-color: rgb(28, 28, 47); stop-opacity: 1;" offset="1" id="stop1"/>
    </linearGradient>
    <linearGradient inkscape:collect="always" xlink:href="#fillGradient" id="bottom-gradient" x1="199" y1="789.83332" x2="661.66666" y2="789.83332" gradientUnits="userSpaceOnUse" gradientTransform="matrix(1.0787342,0,0,1.0787342,-0.3077715,-7.8031988)"/>
    <linearGradient inkscape:collect="always" xlink:href="#fillGradient" id="front-hair-gradient" x1="166.78125" y1="239.89061" x2="718.88538" y2="746.55731" gradientUnits="userSpaceOnUse" gradientTransform="matrix(1.0787342,0,0,1.0787342,-2.3077715,-9.8031988)"/>
    <linearGradient inkscape:collect="always" xlink:href="#fillGradient" id="back-hair-gradient" x1="285.63937" y1="287.11978" x2="466.66666" y2="587.11981" gradientUnits="userSpaceOnUse" gradientTransform="matrix(1.0787342,0,0,1.0787342,-2.3077715,-9.8031988)"/>
    
  </defs>
  <sodipodi:namedview id="base" pagecolor="#ffffff" bordercolor="#666666" borderopacity="1.0" inkscape:pageopacity="0.0" inkscape:pageshadow="2" inkscape:zoom="0.60000001" inkscape:cx="385.83333" inkscape:cy="624.99999" inkscape:current-layer="queen" inkscape:document-units="px" inkscape:window-width="1846" inkscape:window-height="1016" inkscape:window-x="0" inkscape:window-y="0" inkscape:showpageshadow="2" inkscape:pagecheckerboard="0" inkscape:deskcolor="#d1d1d1" showgrid="false" inkscape:window-maximized="1"/>
  <metadata id="metadata36225">
    <rdf:RDF>
      <cc:Work rdf:about="">
        <dc:format>image/svg+xml</dc:format>
        <dc:type rdf:resource="http://purl.org/dc/dcmitype/StillImage"/>
        <dc:creator>
          <cc:Agent>
            <dc:title>Maurizio Monge</dc:title>
          </cc:Agent>
        </dc:creator>
        <dc:rights>
          <cc:Agent>
            <dc:title>Maurizio Monge</dc:title>
          </cc:Agent>
        </dc:rights>
        <cc:license rdf:resource="http://creativecommons.org/licenses/GPL/2.0/"/>
      </cc:Work>
      <cc:License rdf:about="http://creativecommons.org/licenses/LGPL/2.1/">
        <cc:permits rdf:resource="http://web.resource.org/cc/Reproduction"/>
        <cc:permits rdf:resource="http://web.resource.org/cc/Distribution"/>
        <cc:requires rdf:resource="http://web.resource.org/cc/Notice"/>
        <cc:permits rdf:resource="http://web.resource.org/cc/DerivativeWorks"/>
        <cc:requires rdf:resource="http://web.resource.org/cc/ShareAlike"/>
        <cc:requires rdf:resource="http://web.resource.org/cc/SourceCode"/>
      </cc:License>
    </rdf:RDF>
  </metadata>
  
  <path id="boundary" class="base stroke-color stroke-boundary" style="fill:none" d="M 690.60514,766.18083 C 779.37375,675.46972 831.58425,524.45837 852.64453,312.51367 742.1936,552.17498 671.76739,658.41563 624.38867,677.26367 669.63021,560.65165 703.16857,385.64747 711.81445,151.90625 642.52005,359.53494 591.23674,503.28794 547.67578,583.73828 521.16186,474.03914 509.4569,286.83813 481.66211,105.73438 c -34.7915,188.52368 -47.63633,382.44851 -77.36914,488.62304 -41.40804,-77.70526 -87.89206,-224.03681 -150.94141,-439.25 -0.98811,223.41983 22.96709,393.0059 60.40625,508.8457 C 265.60305,629.74087 196.47507,521.61634 92.744141,306.71484 104.33204,521.19328 155.58188,674.69911 242.9566,766.53063 m 8.03387,46.62757 -22.00024,-2 v 68.11719 H 698.82422 V 811.1582 l -16.78584,2" sodipodi:nodetypes="ccccccccccccccccc"/>
  <path class="base stroke-color stroke-medium" style="fill:url(#back-hair-gradient)" d="M 711.81425,151.9058 C 485.94764,828.67603 451.05031,829.9326 253.35223,155.10829 252.13596,430.11691 288.70926,623.5594 341.7073,735.60211 H 598.51345 C 656.59578,623.03667 701.58706,428.39746 711.81425,151.9058 Z" id="back-hair" sodipodi:nodetypes="ccccc"/>
  <path class="base stroke-color stroke-medium" style="fill:url(#front-hair-gradient)" d="M 481.66181,105.73373 C 399.69443,549.888 439.91032,1025.9461 92.744437,306.71539 104.62497,526.61005 158.19459,682.4123 249.64392,773.36905 H 683.36248 C 776.54215,683.54842 831.01849,530.15907 852.64524,312.51358 521.10926,1031.895 549.89109,550.29828 481.66181,105.73373 Z" id="front-hair" sodipodi:nodetypes="cccccc"/>
  <rect class="base stroke-color stroke-medium" style="fill:url(#bottom-gradient)" id="bottom" width="469.83463" height="70.117737" x="228.9902" y="809.15814"/>
</svg>

<svg xmlns="http://www.w3.org/2000/svg" xmlns:xlink="http://www.w3.org/1999/xlink" id="queen" width="700pt" height="700pt" version="1.0" viewBox="0 0 933.333 933.333"><style id="style-base">.base{fill-opacity:1;fill-rule:evenodd;stroke-miterlimit:4;stroke-dasharray:none;stroke-linecap:round;stroke-linejoin:round;stroke-opacity:1}.stroke-medium{stroke-width:20}.stroke-color{stroke:#000}</style><defs id="defs36222"><linearGradient id="fillGradient"><stop id="stop0" offset="0" style="stop-color:#7f899b;stop-opacity:1"/><stop id="stop1" offset="1" style="stop-color:#1c1c2f;stop-opacity:1"/></linearGradient><linearGradient xlink:href="#fillGradient" id="bottom-gradient" x1="199" x2="661.667" y1="789.833" y2="789.833" gradientTransform="matrix(1.07873 0 0 1.07873 -.308 -7.803)" gradientUnits="userSpaceOnUse"/><linearGradient xlink:href="#fillGradient" id="front-hair-gradient" x1="166.781" x2="718.885" y1="239.891" y2="746.557" gradientTransform="matrix(1.07873 0 0 1.07873 -2.308 -9.803)" gradientUnits="userSpaceOnUse"/><linearGradient xlink:href="#fillGradient" id="back-hair-gradient" x1="285.639" x2="466.667" y1="287.12" y2="587.12" gradientTransform="matrix(1.07873 0 0 1.07873 -2.308 -9.803)" gradientUnits="userSpaceOnUse"/></defs><path id="boundary" d="M690.605 766.18c88.769-90.71 140.98-241.722 162.04-453.666-110.451 239.661-180.878 345.902-228.256 364.75 45.241-116.612 78.78-291.617 87.425-525.358-69.294 207.629-120.577 351.382-164.138 431.832-26.514-109.699-38.22-296.9-66.014-478.004-34.791 188.524-47.636 382.449-77.369 488.623-41.408-77.705-87.892-224.036-150.941-439.25-.989 223.42 22.967 393.006 60.406 508.846-48.155-34.212-117.283-142.337-221.014-357.238 11.588 214.478 62.838 367.984 150.213 459.816m8.033 46.627-22-2v68.117h469.834v-68.117l-16.786 2" class="base stroke-color" style="fill:none;stroke-width:35"/><path id="back-hair" d="M711.814 151.906c-225.866 676.77-260.764 678.027-458.462 3.202-1.216 275.009 35.357 468.451 88.355 580.494h256.806c58.083-112.565 103.074-307.205 113.301-583.696Z" class="base stroke-color stroke-medium" style="fill:url(#back-hair-gradient)"/><path id="front-hair" d="M481.662 105.734c-81.968 444.154-41.752 920.212-388.918 200.981 11.881 219.895 65.45 375.697 156.9 466.654h433.718c93.18-89.82 147.656-243.21 169.283-460.855-331.536 719.381-302.754 237.784-370.983-206.78Z" class="base stroke-color stroke-medium" style="fill:url(#front-hair-gradient)"/><path id="bottom" d="M228.99 809.158h469.835v70.118H228.99z" class="base stroke-color stroke-medium" style="fill:url(#bottom-gradient)"/></svg>
